X:1
T:Title
%%score { ( 1 3 ) | 2 }
L:1/8
Q:1/4=100
M:4/4
K:Ab
V:1 treble nm="Grand Piano"
V:3 treble 
V:2 bass 
V:1
 [Ec]>[Ec] [Ec]>[Fd] [Ec]>[DB] [CA]>[DG] | [EA]2 [DF]2 [CE]2 [EA]2 | B>B B>B c>B A>B | %3
w: M.~L.~McPhail * * * * * * *|||
 [Ec]2 [Ee]2 [EB]4 | [Ec]>[Ec] [Ec]>[Fd] [Ec]>[DB] [CA]>[DG] | [EA]2 [DF]2 [CE]2 [CA]2 | %6
w: |||
 B>B B>B c>B A>B | c2 B2 [CA]4 | c4 e4 | A4 c4 | F>F F>[EG] [FA]>[FA] [FA]>[=EB] | [Ec]2 [EA]2 B4 | %12
w: ||||||
 c4 e4 | A4 c4 | F>F F>[EG] [FA]>[FA] [FA]>[=EB] | [Ec]2 [DB]2 [CA]4 |] %16
w: ||||
V:2
 [A,,A,]>[A,,A,] [A,,A,]>[A,,A,] [A,,A,]>[A,,E,] [A,,E,]>[A,,E,] | %1
 [C,A,]2 [D,A,]2 [A,,A,]2 [C,A,]2 | %2
 [E,G,E]>[E,G,E] [E,G,E]>[E,G,E] [E,A,E]>[E,G,E] [E,F,E]>[E,G,E] | [A,,A,]2 [C,A,]2 [E,G,]4 | %4
 [A,,A,]>[A,,A,] [A,,A,]>[A,,A,] [A,,A,]>[A,,E,] [A,,E,]>[A,,E,] | %5
 [C,A,]2 [D,A,]2 [A,,A,]2 [A,,A,]2 | %6
 [E,G,E]>[E,G,E] [E,G,E]>[E,G,E] [E,A,E]>[E,G,E] [E,F,E]>[E,G,E] | [E,A,E]2 [E,G,D]2 [A,,A,]4 | %8
 [A,E]>A, A,>A, [G,B,E]2 [G,B,]2 | [F,CF]>[F,C] [F,C]>[F,C] [C,C]2 [C,B,]2 | %10
 [D,A,]>[D,A,D] [D,A,D]>[D,A,] [D,A,]>[D,A,] [D,A,]>[D,A,] | [A,,A,]2 [C,A,]2 [E,G,E]4 | %12
 [A,E]>A, A,>A, [G,B,E]2 [G,B,]2 | [F,CF]>[F,C] [F,C]>[F,C] [C,C]2 [C,B,]2 | %14
 [D,A,]>[D,A,D] [D,A,D]>[D,A,] [D,A,]>[D,A,] [D,A,]>[D,A,] | [E,A,]2 [E,G,]2 [A,,A,]4 |] %16
V:3
 x8 | x8 | x8 | x8 | x8 | x8 | x8 | x8 | z z/ E/ E>E z2 E2 | z z/ F/ F>F =E2 E2 | x8 | x8 | %12
 z z/ E/ E>E z2 E2 | z z/ F/ F>F =E2 E2 | x8 | x8 |] %16

